!!!!SEGMENT: Snf0111-Da_pacem_Domine_I.krn
!!!id: Snf0111
!!!AGN: Motet
!!!SCT: Edwards, Gasch, Tröster (2021)
!!!voices: 4
!!!COM: Ludwig Senfl
!!!OTL: Da pacem, Domine I
**kern	**text	**kern	**text	**kern	**text	**kern	**text
*part4	*part4	*part3	*part3	*part2	*part2	*part1	*part1
*staff4	*staff4	*staff3	*staff3	*staff2	*staff2	*staff1	*staff1
*I"Bassus	*	*I"Tenor	*	*I"Altus	*	*I"Superius	*
*I'B	*	*I'T	*	*I'A	*	*I'S	*
*clefF4	*	*clefGv2	*	*clefGv2	*	*clefG2	*
*k[b-]	*	*k[b-]	*	*k[b-]	*	*k[b-]	*
*F:	*	*F:	*	*F:	*	*F:	*
*M2/1	*	*M2/1	*	*M2/1	*	*M2/1	*
*met(C|)	*	*met(C|)	*	*met(C|)	*	*met(C|)	*
!!section: Prima pars: Da pacem, Domine
!!!OMD: Prima pars: Da pacem, Domine
=1	=1	=1	=1	=1	=1	=1	=1
0r	.	0r	.	2.G	Da	0r	.
.	.	.	.	4A	.	.	.
.	.	.	.	4B-y	.	.	.
.	.	.	.	4G	.	.	.
.	.	.	.	[2c	.	.	.
=2	=2	=2	=2	=2	=2	=2	=2
0r	.	0r	.	2c]	.	0g	Da
.	.	.	.	2B-y	.	.	.
.	.	.	.	2G	.	.	.
.	.	.	.	[2B-y	pa-	.	.
=3	=3	=3	=3	=3	=3	=3	=3
0r	.	0r	.	2B-]	.	0f	pa-
.	.	.	.	4A	.	.	.
.	.	.	.	4G	.	.	.
.	.	.	.	1A	.	.	.
=4	=4	=4	=4	=4	=4	=4	=4
2.GG	Da	0r	.	0G	-cem,	[0g	-cem,
4AA	.	.	.	.	.	.	.
4BB-y	.	.	.	.	.	.	.
4GG	.	.	.	.	.	.	.
[2C	.	.	.	.	.	.	.
=5	=5	=5	=5	=5	=5	=5	=5
2C]	.	0G	Da	0r	.	0g]	.
2BB-y	.	.	.	.	.	.	.
2GG	.	.	.	.	.	.	.
[2BB-y	pa-	.	.	.	.	.	.
=6	=6	=6	=6	=6	=6	=6	=6
2BB-]	.	0F	pa-	1B-y	Do-	0r	.
4AA	.	.	.	.	.	.	.
4GG	.	.	.	.	.	.	.
1AA	.	.	.	1c	-mi-	.	.
=7	=7	=7	=7	=7	=7	=7	=7
1GG	-cem,	0G	-cem,	1B-y	-ne,	0b-y	Do-
2r	.	.	.	2r	.	.	.
2G	Do-	.	.	2d	Do-	.	.
=	=	=	=	=	=	=	=
*M3/3%2	*	*	*	*M3/3%2	*	*	*
*met(3)	*	*	*	*met(3)	*	*	*
*Xtuplet	*	*	*	*Xtuplet	*	*	*
3.A	.	0r	.	3.c	.	0cc	-mi-
6B-y	.	.	.	6d	.	.	.
3c	.	.	.	3e	.	.	.
3.F	-mi-	.	.	3.f	-mi-	.	.
6G	.	.	.	6e	.	.	.
3A	.	.	.	3c	.	.	.
=	=	=	=	=	=	=	=
*tuplet	*	*	*	*tuplet	*	*	*
*M2/1	*	*	*	*M2/1	*	*	*
*met(C|)	*	*	*	*met(C|)	*	*	*
1G	-ne,	0B-y	Do-	2d	-ne,	0b-y	-ne,
.	.	.	.	2.G	Do-	.	.
2r	.	.	.	.	.	.	.
.	.	.	.	8FL	.	.	.
.	.	.	.	8EJ	.	.	.
2GG	Do-	.	.	2D	.	.	.
=	=	=	=	=	=	=	=
*M3/3%2	*	*	*	*M3/3%2	*	*	*
*met(3)	*	*	*	*met(3)	*	*	*
*Xtuplet	*	*	*	*Xtuplet	*	*	*
3.AA	.	0c	-mi-	3.C	.	1r	.
6BB-y	.	.	.	6D	.	.	.
3C	.	.	.	3E	.	.	.
3.FF	-mi-	.	.	3.F	-mi-	1a	in
6GG	.	.	.	6E	.	.	.
3AA	.	.	.	3C	.	.	.
=	=	=	=	=	=	=	=
*tuplet	*	*	*	*tuplet	*	*	*
*M2/1	*	*	*	*M2/1	*	*	*
*met(C|)	*	*	*	*met(C|)	*	*	*
2GG	-ne,	1B-y	-ne,	1G	.	1b-y	di-
2G	in	.	.	.	.	.	.
2A	.	2r	.	2F	-ne,	1cc	-e-
2F	di-	2A	in	2f	in	.	.
=8	=8	=8	=8	=8	=8	=8	=8
1G	-e-	1B-y	di-	2d	di-	1b-y	-bus
.	.	.	.	2e	.	.	.
2F	.	[1c	-e-	1f	-e-	1a	.
2FF	.	.	.	.	.	.	.
=9	=9	=9	=9	=9	=9	=9	=9
2.C	.	1c]	.	1e	-bus	1g	no-
4BB-y	.	.	.	.	.	.	.
4GG	.	1B-y	-bus	1d	no-	1g	-stris,
4AA	.	.	.	.	.	.	.
4BB-y	.	.	.	.	.	.	.
4C	.	.	.	.	.	.	.
=10	=10	=10	=10	=10	=10	=10	=10
1D	-bus	1A	.	1d	-stris,	0r	.
2GG	no-	[1G	no-	1r	.	.	.
[2C	.	.	.	.	.	.	.
=11	=11	=11	=11	=11	=11	=11	=11
2C]	.	1G]	.	2r	.	2r	.
2GG	.	.	.	2.B-y	qui-	1b-y	qui-
1GG	-stris,	1G	-stris,	.	.	.	.
.	.	.	.	4c	.	.	.
.	.	.	.	4d	.	2b-y	-a
.	.	.	.	4e	.	.	.
=12	=12	=12	=12	=12	=12	=12	=12
0r	.	0r	.	4f	.	1a	non
.	.	.	.	4c	.	.	.
.	.	.	.	1f	.	.	.
.	.	.	.	.	.	1g	.
.	.	.	.	2e	.	.	.
=13	=13	=13	=13	=13	=13	=13	=13
2r	.	2r	.	4f	-a	0f	est,
.	.	.	.	4e	.	.	.
2.BB-y	qui-	1B-y	qui-	4d	.	.	.
.	.	.	.	4c	.	.	.
.	.	.	.	1d	non	.	.
4C	.	.	.	.	.	.	.
4D	.	2B-y	-a	.	.	.	.
4E	.	.	.	.	.	.	.
=14	=14	=14	=14	=14	=14	=14	=14
4F	.	1A	non	1c	est,	0r	.
4C	.	.	.	.	.	.	.
1F	.	.	.	.	.	.	.
.	.	1G	.	1r	.	.	.
2E	.	.	.	.	.	.	.
=15	=15	=15	=15	=15	=15	=15	=15
2F	-a	1F	est,	2r	.	2r	.
2.BB-y	non	.	.	1B-y	qui-	2.d	qui-
.	.	1r	.	.	.	.	.
4C	.	.	.	.	.	4e	.
4D	.	.	.	2B-y	-a	4f	.
4E	.	.	.	.	.	4g	.
=16	=16	=16	=16	=16	=16	=16	=16
4F	.	0r	.	1A	non	1c	-a,
4C	.	.	.	.	.	.	.
1F	.	.	.	.	.	.	.
.	.	.	.	1G	.	2r	.
2E	.	.	.	.	.	2g	qui-
=17	=17	=17	=17	=17	=17	=17	=17
1F	est,	2r	.	2F	est,	4a	.
.	.	.	.	.	.	4f	.
.	.	2.F	non	1f	qui-	2.a	.
1r	.	.	.	.	.	.	.
.	.	4G	.	.	.	4b-y	.
.	.	4A	.	2f	-a	4cc	.
.	.	4B-y	.	.	.	4dd	.
=18	=18	=18	=18	=18	=18	=18	=18
2r	.	4c	.	1e	non	1g	-a
.	.	4G	.	.	.	.	.
2C	non	1c	.	.	.	.	.
1G	.	.	.	1d	.	2r	.
.	.	2BnXi	.	.	.	2d	non
=19	=19	=19	=19	=19	=19	=19	=19
1C	est,	0c	est	2c	est	4e	.
.	.	.	.	.	.	4c	.
.	.	.	.	2.C	.	2.e	.
2r	.	.	.	.	.	.	.
.	.	.	.	4D	.	4f	.
2C	non	.	.	4E	.	4g	.
.	.	.	.	4F	.	4a	.
=20	=20	=20	=20	=20	=20	=20	=20
2.BB-y	.	0r	.	4G	.	1d	est,
.	.	.	.	4D	.	.	.
.	.	.	.	1G	.	.	.
8AAL	.	.	.	.	.	.	.
8GGJ	.	.	.	.	.	.	.
1AA	.	.	.	.	.	1r	.
.	.	.	.	2F#i	a-	.	.
=21	=21	=21	=21	=21	=21	=21	=21
1GG	est,	1B-y	a-	2.G	.	2r	.
.	.	.	.	.	.	1b-y	qui-
.	.	.	.	4A	.	.	.
2r	.	1B-y	-li-	4B-y	.	.	.
.	.	.	.	4c	.	.	.
2G	qui-	.	.	4d	.	2b-y	-a
.	.	.	.	4e	.	.	.
=22	=22	=22	=22	=22	=22	=22	=22
2.F	-a	0c	.	2f	.	1a	non
.	.	.	.	2F	-li-	.	.
8EL	.	.	.	.	.	.	.
8DJ	.	.	.	.	.	.	.
1E	non	.	.	1G	-us,	1g	.
=23	=23	=23	=23	=23	=23	=23	=23
1.D	.	0d	.	2r	.	[0f	est
.	.	.	.	2A	a-	.	.
.	.	.	.	2F	.	.	.
2BB-y	.	.	.	[2B-y	.	.	.
=24	=24	=24	=24	=24	=24	=24	=24
1F	.	1c	-us,	2B-]	.	0f]	.
.	.	.	.	2A	.	.	.
4BB-y	est	2d	a-	2B-y	.	.	.
4C	.	.	.	.	.	.	.
4D	.	[2f	-li-	[2A	.	.	.
4E	.	.	.	.	.	.	.
=25	=25	=25	=25	=25	=25	=25	=25
2F	.	4f]	.	2A]	.	0r	.
.	.	4e	.	.	.	.	.
2G	.	1d	.	2B-y	-li-	.	.
1E	.	.	.	1G	-us,	.	.
.	.	2c#i	.	.	.	.	.
=	=	=	=	=	=	=	=
*	*	*	*	*M3/3%2	*	*	*
*	*	*	*	*met(3)	*	*	*
*	*	*	*	*Xtuplet	*	*	*
0D	a-	[0d	-us	3%2A	a-	1f	a-
.	.	.	.	3%2B-y	.	.	.
.	.	.	.	.	.	1f	-li-
.	.	.	.	3%2A	.	.	.
=26	=26	=26	=26	=26	=26	=26	=26
0GG	-li-	0d_	.	3G	.	0g	.
.	.	.	.	3B-y	.	.	.
.	.	.	.	3G	.	.	.
.	.	.	.	3%2B-y	-li-	.	.
.	.	.	.	6A	.	.	.
.	.	.	.	6G	.	.	.
=	=	=	=	=	=	=	=
*	*	*	*	*tuplet	*	*	*
*	*	*	*	*M2/1	*	*	*
*	*	*	*	*met(C|)	*	*	*
1D	-us,	0d]	.	1F	-us,	0a	.
2r	.	.	.	2r	.	.	.
2D	a-	.	.	2A	qui-	.	.
=27	=27	=27	=27	=27	=27	=27	=27
2G	.	0r	.	4B-y	-a	1g	-us,
.	.	.	.	4c	.	.	.
2G	-li-	.	.	4d	.	.	.
.	.	.	.	4e	.	.	.
1F	-us,	.	.	1f	non	2a	a-
.	.	.	.	.	.	[2cc	-li-
=28	=28	=28	=28	=28	=28	=28	=28
2r	.	0r	.	2c	est	4cc]	.
.	.	.	.	.	.	4b-y	.
2F	a-	.	.	2.f	a-	1a	.
2B-y	.	.	.	.	.	.	.
.	.	.	.	4e	.	.	.
2B-y	-li-	.	.	[2d	.	2g	.
=29	=29	=29	=29	=29	=29	=29	=29
1A	-us	1r	.	2d]	.	[0a	-us
.	.	.	.	2c	-li-	.	.
2r	.	1d	qui	2d	-us	.	.
2D	qui	.	.	2f	qui	.	.
=30	=30	=30	=30	=30	=30	=30	=30
4D	pu-	1d	pu-	1f	pu-	0a]	.
4E	.	.	.	.	.	.	.
4F	.	.	.	.	.	.	.
4G	.	.	.	.	.	.	.
1A	.	1c	-gnet	2e	.	.	.
.	.	.	.	2c	.	.	.
=31	=31	=31	=31	=31	=31	=31	=31
1G	-gnet	0B-y	pro	2d	-gnet	0r	.
.	.	.	.	2G	pro	.	.
2r	.	.	.	4G	no-	.	.
.	.	.	.	4A	.	.	.
2GG	pro	.	.	4B-y	.	.	.
.	.	.	.	4c	.	.	.
=32	=32	=32	=32	=32	=32	=32	=32
4GG	no-	2.B-y	no-	2d	.	0r	.
4AA	.	.	.	.	.	.	.
4BB-y	.	.	.	2D	.	.	.
4C	.	4A	.	.	.	.	.
2D	.	2B-y	.	2F	.	.	.
2C	.	[2c	.	2G	.	.	.
=33	=33	=33	=33	=33	=33	=33	=33
2AA	.	2c]	.	2A	.	0r	.
2BB-y	.	1B-y	.	1F	.	.	.
1C	.	.	.	.	.	.	.
.	.	2A	.	2E	.	.	.
=34	=34	=34	=34	=34	=34	=34	=34
0BB-y	-bis,	2B-y	-bis,	1F	-bis,	1r	.
.	.	2B-y	qui	.	.	.	.
.	.	4B-y	pu-	2r	.	1dd	qui
.	.	4c	.	.	.	.	.
.	.	4d	.	2B-y	qui	.	.
.	.	4e	.	.	.	.	.
=35	=35	=35	=35	=35	=35	=35	=35
2r	.	2f	.	1B-y	pu-	1dd	pu-
2BB-y	qui	2d	.	.	.	.	.
1C	pu-	1e	.	1G	-gnet	1cc	-gnet
=36	=36	=36	=36	=36	=36	=36	=36
0GG	-gnet,	1d	-gnet	2r	.	0b-y	pro
.	.	.	.	2G	pro	.	.
.	.	2r	.	4G	no-	.	.
.	.	.	.	4A	.	.	.
.	.	2G	pro	4B-y	.	.	.
.	.	.	.	4c	.	.	.
=37	=37	=37	=37	=37	=37	=37	=37
2r	.	4G	no-	1d	.	2.b-y	no-
.	.	4A	.	.	.	.	.
2G	qui	4B-y	.	.	.	.	.
.	.	4c	.	.	.	4a	.
2G	pu-	2d	.	2G	.	2b-y	.
2C	-gnet	2c	.	2g	.	[2cc	.
=38	=38	=38	=38	=38	=38	=38	=38
2F	pro	2A	.	4c	.	2cc]	.
.	.	.	.	4d	.	.	.
2G	.	2B-y	.	4e	.	1b-y	.
.	.	.	.	8dL	.	.	.
.	.	.	.	8eJ	.	.	.
1F	no-	1c	.	1f	-bis.	.	.
.	.	.	.	.	.	2a	.
=39	=39	=39	=39	=39	=39	=39	=39
1BB-y	-bis,	[0B-y	-bis,	2r	.	1b-y	-bis,
.	.	.	.	2.f	ni-	.	.
1r	.	.	.	.	.	2r	.
.	.	.	.	4e	.	.	.
.	.	.	.	[2d	.	[2b-y	pro
=40	=40	=40	=40	=40	=40	=40	=40
2r	.	0B-]	.	4d]	.	4b-]	.
.	.	.	.	4c	.	4a	.
1E-X	ni-	.	.	4B-y	.	4g	.
.	.	.	.	4A	.	4f	.
.	.	.	.	2B-y	.	2g	.
2E-i	-si	.	.	2G	.	2g	no-
=41	=41	=41	=41	=41	=41	=41	=41
1D	tu,	2r	.	1d	.	1f	-bis,
.	.	1B-y	ni-	.	.	.	.
1E-i	.	.	.	1G	-si	1r	.
.	.	2B-y	-si	.	.	.	.
=42	=42	=42	=42	=42	=42	=42	=42
1F	De-	1A	tu,	2r	.	0r	.
.	.	.	.	2c	tu,	.	.
2E-i	-us	1B-y	.	2G	De-	.	.
2D	.	.	.	2B-y	.	.	.
=43	=43	=43	=43	=43	=43	=43	=43
2.C	no-	1c	De-	2A	-us	0r	.
.	.	.	.	1G	.	.	.
8BB-yL	.	.	.	.	.	.	.
8AAJ	.	.	.	.	.	.	.
2GG	.	2B-y	-us	.	.	.	.
2D	.	[2A	.	2F	no-	.	.
=44	=44	=44	=44	=44	=44	=44	=44
2C	.	2A]	.	2E	.	0r	.
2BB-y	.	1G	no-	2D	.	.	.
1AA	.	.	.	2C	.	.	.
.	.	2F#i	.	2c	.	.	.
=45	=45	=45	=45	=45	=45	=45	=45
2GG	-ster,	2G	-ster,	2B-y	.	0r	.
2.C	ni-	1e-X	ni-	2c	.	.	.
.	.	.	.	1G	-ster,	.	.
4D	.	.	.	.	.	.	.
4E-X	.	2e-i	-si	.	.	.	.
4F	.	.	.	.	.	.	.
=46	=46	=46	=46	=46	=46	=46	=46
2G	.	1d	tu,	2r	.	2r	.
2GG	-si	.	.	2.G	no-	1b-y	ni-
1G	tu,	1e-i	.	.	.	.	.
.	.	.	.	4A	.	.	.
.	.	.	.	2B-y	.	2b-y	-si
=47	=47	=47	=47	=47	=47	=47	=47
1F	De-	1f	De-	1c	-ster,	1a	tu,
1G	.	2e-i	-us	1r	.	1b-y	.
.	.	2d	.	.	.	.	.
=48	=48	=48	=48	=48	=48	=48	=48
1C	-us,	2.c	no-	2r	.	1cc	De-
.	.	.	.	1G	De-	.	.
.	.	8B-yL	.	.	.	.	.
.	.	8AJ	.	.	.	.	.
1r	.	2G	.	.	.	2b-y	-us
.	.	2d	.	2D	-us	[2a	.
=49	=49	=49	=49	=49	=49	=49	=49
0r	.	2c	.	2F	no-	2a]	.
.	.	2B-y	.	2G	.	1g	no-
.	.	1A	.	2D	.	.	.
.	.	.	.	2A	.	2f#i	.
=50	=50	=50	=50	=50	=50	=50	=50
2r	.	0G	-ster,	2B-y	.	1g	-ster,
1C	De-	.	.	2c	.	.	.
.	.	.	.	2G	.	2r	.
2GG	.	.	.	[2d	.	[2g	ni-
=51	=51	=51	=51	=51	=51	=51	=51
2BB-y	.	1r	.	2d]	.	4g]	.
.	.	.	.	.	.	4f	.
2C	.	.	.	2c	.	2e	.
2GG	-us	2r	.	2B-y	.	2d	.
[2C	no-	[2c	De-	2G	.	[2e	-si
=52	=52	=52	=52	=52	=52	=52	=52
4C]	.	2c]	.	1c	-ster,	2e]	.
4D	.	.	.	.	.	.	.
4E	.	2G	-us	.	.	2e	tu,
4F	.	.	.	.	.	.	.
2G	.	2B-y	no-	2r	.	2d	.
[2C	.	2c	.	[2c	De-	[2e	De-
=53	=53	=53	=53	=53	=53	=53	=53
2C]	.	[0G	-ster,	2c]	.	2e]	.
2GG	.	.	.	2B-y	-us	2d	-us
2BB-y	.	.	.	2d	no-	2.g	no-
2C	.	.	.	2e	.	.	.
.	.	.	.	.	.	4a	.
=54	=54	=54	=54	=54	=54	=54	=54
1GG	-ster,	1G]	.	2d	.	1b-y	-ster,
.	.	.	.	2.B-y	-ster,	.	.
2r	.	2r	.	.	.	2r	.
.	.	.	.	4c	.	.	.
[2BB-y	ni-	[2d	ni-	4d	.	[2b-y	ni-
.	.	.	.	4e	.	.	.
=55	=55	=55	=55	=55	=55	=55	=55
4BB-]	.	2d]	.	1f	ni-	2b-]	.
4C	.	.	.	.	.	.	.
4D	.	2d	-si	.	.	2b-y	-si
4E	.	.	.	.	.	.	.
2F	.	2c	tu,	2f	-si	2a	tu,
2D	-si	2d	.	2f	tu,	2b-y	.
=56	=56	=56	=56	=56	=56	=56	=56
1C	tu,	1e-X	De-	1g	De-	1cc	De-
2.D	De-	1d	-us	1f	-us	2b-y	-us
.	.	.	.	.	.	[2a	.
4E	.	.	.	.	.	.	.
=57	=57	=57	=57	=57	=57	=57	=57
2F	.	2c	.	2r	.	2a]	.
2BB-y	-us	2B-y	.	2d	no-	1g	no-
2C	.	1A	no-	2e	.	.	.
2D	.	.	.	2f	.	2f#i	.
=58	=58	=58	=58	=58	=58	=58	=58
2.GG	no-	[0Gl	-ster.	2.B-y	.	[0gl	.
4AA	.	.	.	4c	.	.	.
2BB-y	.	.	.	2d	.	.	.
2EE-X	.	.	.	[2G	.	.	.
=59	=59	=59	=59	=59	=59	=59	=59
2.E-X	.	0G_	.	4G]	.	0g_	.
.	.	.	.	4A	.	.	.
.	.	.	.	2B-y	.	.	.
4D	.	.	.	.	.	.	.
4C	.	.	.	2E-X	.	.	.
4BB-y	.	.	.	.	.	.	.
2C	.	.	.	2e-X	.	.	.
=60	=60	=60	=60	=60	=60	=60	=60
00GGl	.	00G]	.	00dl	-ster.	00g]	.
==	==	==	==	==	==	==	==
*-	*-	*-	*-	*-	*-	*-	*-
!!!system-decoration: [*]
!!!RDF**kern: i = editorial accidental
!!!RDF**kern: l = terminal long
!!!PTL: <i> New Senfl Edition: Motets for Four Voices (A-I) </i>
!!!PPR: Hollitzer Verlag
!!!PC#: Denkmäler der Tonkunst in Österreich 163.1
!!!PDT: 2021
!!!PED: Scott Lee Edwards, Stefan Gasch, and Sonja Tröster
!!!YEC: Copyright 2021 Denkmäler der Tonkunst in Österreich
!!!YEM: CC-BY-NC 4.0 (https://creativecommons.org/licenses/by-nc/4.0/legalcode)
!!!EED: Benjamin Ory
!!!EEV: 2023/11/12
!!!verovio: header true
!!!header-left: @{PTL}\n@{PED}, eds.\n@{PC#} (@{PDT})&nbsp;\n
!!!header-right:
!!!header-center:
